Newaita-dark/apps/64/com.github.cassidyjames.clairvoyant.svg

<svg height="64" viewBox="0 0 64 64" width="64" xmlns="http://www.w3.org/2000/svg" xmlns:xlink="http://www.w3.org/1999/xlink"><linearGradient id="a"><stop offset="0" stop-opacity=".313726"/><stop offset=".222222" stop-opacity=".27451"/><stop offset="1" stop-opacity="0"/></linearGradient><radialGradient id="b" cx="450.908936" cy="189.579361" gradientTransform="matrix(.00000035 -.156265 -.281277 -.0000002 89.046304 127.190659)" gradientUnits="userSpaceOnUse" r="21.166656" xlink:href="#a"/><radialGradient id="c" cx="450.908936" cy="189.579361" gradientTransform="matrix(-.00000035 .156265 .281277 .0000002 -25.540237 -15.054964)" gradientUnits="userSpaceOnUse" r="21.166656" xlink:href="#a"/><radialGradient id="d" cx="450.908936" cy="189.579361" gradientTransform="matrix(-.00000035 -.156265 .281277 -.0000002 -25.540237 127.190659)" gradientUnits="userSpaceOnUse" r="21.166656" xlink:href="#a"/><radialGradient id="e" cx="450.908936" cy="189.579361" gradientTransform="matrix(.00000035 .156265 -.281277 .0000002 89.0463 -15.054965)" gradientUnits="userSpaceOnUse" r="21.166656" xlink:href="#a"/><linearGradient id="f" gradientTransform="matrix(.0267201 0 0 .125012 24.930772 26.877567)" gradientUnits="userSpaceOnUse" x1="255.323059" x2="255.323044" y1="233.5" y2="254.666656"><stop offset="0" stop-opacity=".27451"/><stop offset="1" stop-opacity="0"/></linearGradient><linearGradient id="g" gradientUnits="userSpaceOnUse" x1="31.753048" x2="31.753048" y1="5.79220799994" y2="56.067868"><stop offset="0" stop-color="#90a4ae"/><stop offset="1" stop-color="#546e7a"/></linearGradient><linearGradient id="h" gradientTransform="matrix(.125012 0 0 -.125012 0 26.877566)" gradientUnits="userSpaceOnUse" x1="254" x2="254" y1="-170" y2="105.166656"><stop offset="0" stop-color="#bdbdbd"/><stop offset="1" stop-color="#e0e0e0"/></linearGradient><linearGradient id="i" gradientUnits="userSpaceOnUse" x1="31.753056" x2="31.753056" y1="13.73048788664" y2="48.12963390428"><stop offset="0" stop-color="#616161"/><stop offset="1" stop-color="#424242"/></linearGradient><path d="m36.382812 56.066406h5.292969v-2.644531h-5.292969zm0 0" fill="url(#b)"/><path d="m27.121094 56.066406h-5.289063v2.648438h5.289063zm0 0" fill="url(#c)"/><path d="m27.121094 56.066406h-5.289063v-2.644531h5.289063zm0 0" fill="url(#d)"/><path d="m36.382812 56.066406h5.292969v2.648438h-5.292969zm0 0" fill="url(#e)"/><path d="m27.121094 55.40625h9.261718v3.308594h-9.261718zm0 0" fill="url(#f)"/><path d="m31.753906 5.792969c13.882813 0 25.136719 11.253906 25.136719 25.136719 0 13.882812-11.253906 25.136718-25.136719 25.136718-13.882812 0-25.140625-11.253906-25.140625-25.136718 0-13.882813 11.257813-25.136719 25.140625-25.136719zm0 0" fill="url(#g)"/><path d="m31.753906 56.066406c-13.925781 0-25.140625-11.210937-25.140625-25.136718 0-.082032.003907-.164063.003907-.246094.128906 13.8125 11.292968 24.890625 25.136718 24.890625s25.003906-11.078125 25.136719-24.890625v.246094c0 13.925781-11.210937 25.136718-25.136719 25.136718zm0 0" fill-opacity=".196078"/><path d="m31.753906 5.792969c-13.925781 0-25.140625 11.210937-25.140625 25.136719 0 .082031.003907.164062.003907.246093.128906-13.8125 11.292968-24.890625 25.136718-24.890625s25.003906 11.078125 25.136719 24.890625c0-.082031 0-.164062 0-.246093 0-13.925782-11.210937-25.136719-25.136719-25.136719zm0 0" fill="#fff" fill-opacity=".392157"/><path d="m31.753906 5.605469c-14.027344 0-25.328125 11.296875-25.328125 25.324219 0 14.027343 11.300781 25.324218 25.328125 25.324218s25.324219-11.296875 25.324219-25.324218c0-14.027344-11.296875-25.324219-25.324219-25.324219zm0 .375c13.824219 0 24.949219 11.125 24.949219 24.949219 0 13.824218-11.125 24.949218-24.949219 24.949218-13.828125 0-24.953125-11.125-24.953125-24.949218 0-13.824219 11.125-24.949219 24.953125-24.949219zm0 0" fill="#212121"/><path d="m31.753906 48.128906c9.5 0 17.199219-7.699218 17.199219-17.199218s-7.699219-17.199219-17.199219-17.199219-17.199218 7.699219-17.199218 17.199219 7.699218 17.199218 17.199218 17.199218zm0 0" fill="url(#h)"/><path d="m31.753906 13.730469c-9.53125 0-17.199218 7.671875-17.199218 17.199219 0 .222656.003906.441406.011718.660156.34375-9.21875 7.878906-16.535156 17.1875-16.535156 9.304688 0 16.839844 7.316406 17.1875 16.535156.007813-.21875.011719-.4375.011719-.660156 0-9.527344-7.671875-17.199219-17.199219-17.199219zm0 0" fill-opacity=".235294"/><path d="m14.566406 31.589844c-.007812.222656-.011718.441406-.011718.664062 0 9.527344 7.667968 17.199219 17.199218 17.199219 9.527344 0 17.199219-7.671875 17.199219-17.199219 0-.222656-.003906-.441406-.011719-.664062-.347656 9.222656-7.882812 16.539062-17.1875 16.539062-9.308594 0-16.84375-7.316406-17.1875-16.539062zm0 0" fill="#fff" fill-opacity=".392157"/><path d="m254.006994-169.994485c75.992743 0 137.580611 61.587869 137.580611 137.580612s-61.587868 137.580612-137.580611 137.580612c-75.992744 0-137.580612-61.587869-137.580612-137.580612s61.587868-137.580612 137.580612-137.580612zm0 0" fill="none" stroke="#212121" stroke-linecap="round" stroke-width="3" transform="matrix(.125012 0 0 -.125012 0 26.877566)"/><path d="m29.105469 20.34375c-2.199219 0-3.96875 1.773438-3.96875 3.972656v2.644532c0 1.382812.703125 2.597656 1.769531 3.308593-1.066406.707031-1.769531 1.921875-1.769531 3.304688v3.972656c0 2.195313 1.769531 3.96875 3.96875 3.96875h5.292969c2.199218 0 3.96875-1.773437 3.96875-3.96875v-3.972656c0-1.382813-.699219-2.597657-1.769532-3.304688 1.070313-.710937 1.769532-1.925781 1.769532-3.308593v-2.644532c0-2.199218-1.769532-3.972656-3.96875-3.972656zm.664062 2.648438h3.96875c1.097657 0 1.984375.882812 1.984375 1.984374v1.984376c0 1.097656-.886718 1.984374-1.984375 1.984374h-3.96875c-1.101562 0-1.984375-.886718-1.984375-1.984374v-1.984376c0-1.101562.882813-1.984374 1.984375-1.984374zm0 8.597656h3.96875c1.097657 0 1.984375.886718 1.984375 1.984375v3.308593c0 1.101563-.886718 1.984376-1.984375 1.984376h-3.96875c-1.101562 0-1.984375-.882813-1.984375-1.984376v-3.308593c0-1.097657.882813-1.984375 1.984375-1.984375zm0 0" fill="url(#i)"/><path d="m29.105469 20.34375c-2.199219 0-3.96875 1.773438-3.96875 3.972656v.660156c0-2.199218 1.769531-3.96875 3.96875-3.96875h5.292969c2.199218 0 3.96875 1.769532 3.96875 3.96875v-.660156c0-2.199218-1.769532-3.972656-3.96875-3.972656zm-1.320313 6.617188v.660156c0 1.101562.882813 1.984375 1.984375 1.984375h3.96875c1.097657 0 1.984375-.882813 1.984375-1.984375v-.660156c0 1.097656-.886718 1.984374-1.984375 1.984374h-3.96875c-1.101562 0-1.984375-.886718-1.984375-1.984374zm-1.308594 3.636718c-.820312.726563-1.339843 1.789063-1.339843 2.976563v.664062c0-1.382812.703125-2.597656 1.769531-3.308593-.148438-.101563-.292969-.210938-.429688-.332032zm10.550782 0c-.132813.121094-.277344.230469-.429688.332032 1.070313.710937 1.769532 1.925781 1.769532 3.308593v-.664062c0-1.1875-.515626-2.25-1.339844-2.976563zm-9.242188 6.285156v.664063c0 1.097656.882813 1.984375 1.984375 1.984375h3.96875c1.097657 0 1.984375-.886719 1.984375-1.984375v-.664063c0 1.101563-.886718 1.984376-1.984375 1.984376h-3.96875c-1.101562 0-1.984375-.882813-1.984375-1.984376zm0 0" fill="#fff" fill-opacity=".313726"/><path d="m29.769531 22.992188c-1.101562 0-1.984375.882812-1.984375 1.984374v.992188c0-1.097656.882813-1.984375 1.984375-1.984375h3.96875c1.097657 0 1.984375.886719 1.984375 1.984375v-.992188c0-1.101562-.886718-1.984374-1.984375-1.984374zm-4.632812 3.96875v.992187c0 1.101563.445312 2.09375 1.164062 2.8125.183594-.183594.386719-.351563.605469-.496094-1.066406-.710937-1.769531-1.925781-1.769531-3.308593zm13.230469 0c0 1.382812-.699219 2.597656-1.769532 3.308593.21875.144531.421875.3125.605469.496094.722656-.71875 1.164063-1.710937 1.164063-2.8125zm-8.597657 4.628906c-1.101562 0-1.984375.886718-1.984375 1.984375v.996093c0-1.101562.882813-1.988281 1.984375-1.988281h3.96875c1.097657 0 1.984375.886719 1.984375 1.988281v-.996093c0-1.097657-.886718-1.984375-1.984375-1.984375zm-4.632812 5.957031v.992187c0 2.199219 1.769531 3.96875 3.96875 3.96875h5.292969c2.199218 0 3.96875-1.769531 3.96875-3.96875v-.992187c0 2.195313-1.769532 3.96875-3.96875 3.96875h-5.292969c-2.199219 0-3.96875-1.773437-3.96875-3.96875zm0 0" fill-opacity=".235294"/><path d="m879.955385 615.059407c-66.489717 0-119.988548 53.61693-119.988548 120.106647v79.952999c0 41.807034 21.257813 78.535812 53.498831 100.029823-32.241018 21.375913-53.498831 58.104691-53.498831 99.911724v120.106647c0 66.371618 53.498831 119.988548 119.988548 119.988548h160.024097c66.489717 0 119.988548-53.61693 119.988548-119.988548v-120.106647c0-41.807033-21.139715-78.535811-53.498831-99.911724 32.359116-21.494011 53.498831-58.222789 53.498831-100.029823v-79.952999c0-66.489717-53.498831-120.106647-119.988548-120.106647zm20.076824 80.071098h119.988548c33.185809 0 59.994274 26.690366 59.994274 59.994274v59.994274c0 33.185809-26.808465 59.994274-59.994274 59.994274h-119.988548c-33.303908 0-59.994274-26.808465-59.994274-59.994274v-59.994274c0-33.303908 26.690366-59.994274 59.994274-59.994274zm0 259.935821h119.988548c33.185809 0 59.994274 26.808465 59.994274 59.994274v100.029823c0 33.303908-26.808465 59.994274-59.994274 59.994274h-119.988548c-33.303908 0-59.994274-26.690366-59.994274-59.994274v-100.029823c0-33.185809 26.690366-59.994274 59.994274-59.994274zm0 0" fill="none" stroke="#212121" stroke-linecap="round" stroke-linejoin="round" stroke-width="11.338583" transform="scale(.0330761)"/></svg>

<?xml version="1.0" encoding="UTF-8"?>
<svg xmlns="http://www.w3.org/2000/svg" xmlns:xlink="http://www.w3.org/1999/xlink" width="64px" height="64px" viewBox="0 0 64 64" version="1.1">
<defs>
<radialGradient id="radial0" gradientUnits="userSpaceOnUse" cx="450.908936" cy="189.579361" fx="450.908936" fy="189.579361" r="21.166656" gradientTransform="matrix(0.000000348341,-0.156265,-0.281277,-0.000000203077,89.046304,127.190659)">
<stop offset="0" style="stop-color:rgb(0%,0%,0%);stop-opacity:0.313726;"/>
<stop offset="0.222222" style="stop-color:rgb(0%,0%,0%);stop-opacity:0.27451;"/>
<stop offset="1" style="stop-color:rgb(0%,0%,0%);stop-opacity:0;"/>
</radialGradient>
<radialGradient id="radial1" gradientUnits="userSpaceOnUse" cx="450.908936" cy="189.579361" fx="450.908936" fy="189.579361" r="21.166656" gradientTransform="matrix(-0.000000348341,0.156265,0.281277,0.000000203077,-25.540237,-15.054964)">
<stop offset="0" style="stop-color:rgb(0%,0%,0%);stop-opacity:0.313726;"/>
<stop offset="0.222222" style="stop-color:rgb(0%,0%,0%);stop-opacity:0.27451;"/>
<stop offset="1" style="stop-color:rgb(0%,0%,0%);stop-opacity:0;"/>
</radialGradient>
<radialGradient id="radial2" gradientUnits="userSpaceOnUse" cx="450.908936" cy="189.579361" fx="450.908936" fy="189.579361" r="21.166656" gradientTransform="matrix(-0.000000348341,-0.156265,0.281277,-0.000000203077,-25.540237,127.190659)">
<stop offset="0" style="stop-color:rgb(0%,0%,0%);stop-opacity:0.313726;"/>
<stop offset="0.222222" style="stop-color:rgb(0%,0%,0%);stop-opacity:0.27451;"/>
<stop offset="1" style="stop-color:rgb(0%,0%,0%);stop-opacity:0;"/>
</radialGradient>
<radialGradient id="radial3" gradientUnits="userSpaceOnUse" cx="450.908936" cy="189.579361" fx="450.908936" fy="189.579361" r="21.166656" gradientTransform="matrix(0.000000348341,0.156265,-0.281277,0.000000203077,89.0463,-15.054965)">
<stop offset="0" style="stop-color:rgb(0%,0%,0%);stop-opacity:0.313726;"/>
<stop offset="0.222222" style="stop-color:rgb(0%,0%,0%);stop-opacity:0.27451;"/>
<stop offset="1" style="stop-color:rgb(0%,0%,0%);stop-opacity:0;"/>
</radialGradient>
<linearGradient id="linear0" gradientUnits="userSpaceOnUse" x1="255.323059" y1="233.5" x2="255.323044" y2="254.666656" gradientTransform="matrix(0.0267201,0,0,0.125012,24.930772,26.877567)">
<stop offset="0" style="stop-color:rgb(0%,0%,0%);stop-opacity:0.27451;"/>
<stop offset="1" style="stop-color:rgb(0%,0%,0%);stop-opacity:0;"/>
</linearGradient>
<linearGradient id="linear1" gradientUnits="userSpaceOnUse" x1="254" y1="-168.666672" x2="254" y2="233.5" gradientTransform="matrix(0.125012,0,0,0.125012,0,26.877566)">
<stop offset="0" style="stop-color:rgb(56.470591%,64.313728%,68.235296%);stop-opacity:1;"/>
<stop offset="1" style="stop-color:rgb(32.941177%,43.137255%,47.843137%);stop-opacity:1;"/>
</linearGradient>
<linearGradient id="linear2" gradientUnits="userSpaceOnUse" x1="254" y1="-170" x2="254" y2="105.166656" gradientTransform="matrix(0.125012,0,0,-0.125012,0,26.877566)">
<stop offset="0" style="stop-color:rgb(74.117649%,74.117649%,74.117649%);stop-opacity:1;"/>
<stop offset="1" style="stop-color:rgb(87.843138%,87.843138%,87.843138%);stop-opacity:1;"/>
</linearGradient>
<linearGradient id="linear3" gradientUnits="userSpaceOnUse" x1="960" y1="415.118103" x2="960" y2="1455.118164" gradientTransform="matrix(0.0330761,0,0,0.0330761,0,0)">
<stop offset="0" style="stop-color:rgb(38.039216%,38.039216%,38.039216%);stop-opacity:1;"/>
<stop offset="1" style="stop-color:rgb(25.882354%,25.882354%,25.882354%);stop-opacity:1;"/>
</linearGradient>
</defs>
<g id="surface1">
<path style=" stroke:none;fill-rule:nonzero;fill:url(#radial0);" d="M 36.382812 56.066406 L 41.675781 56.066406 L 41.675781 53.421875 L 36.382812 53.421875 Z M 36.382812 56.066406 "/>
<path style=" stroke:none;fill-rule:nonzero;fill:url(#radial1);" d="M 27.121094 56.066406 L 21.832031 56.066406 L 21.832031 58.714844 L 27.121094 58.714844 Z M 27.121094 56.066406 "/>
<path style=" stroke:none;fill-rule:nonzero;fill:url(#radial2);" d="M 27.121094 56.066406 L 21.832031 56.066406 L 21.832031 53.421875 L 27.121094 53.421875 Z M 27.121094 56.066406 "/>
<path style=" stroke:none;fill-rule:nonzero;fill:url(#radial3);" d="M 36.382812 56.066406 L 41.675781 56.066406 L 41.675781 58.714844 L 36.382812 58.714844 Z M 36.382812 56.066406 "/>
<path style=" stroke:none;fill-rule:nonzero;fill:url(#linear0);" d="M 27.121094 55.40625 L 36.382812 55.40625 L 36.382812 58.714844 L 27.121094 58.714844 Z M 27.121094 55.40625 "/>
<path style=" stroke:none;fill-rule:nonzero;fill:url(#linear1);" d="M 31.753906 5.792969 C 45.636719 5.792969 56.890625 17.046875 56.890625 30.929688 C 56.890625 44.8125 45.636719 56.066406 31.753906 56.066406 C 17.871094 56.066406 6.613281 44.8125 6.613281 30.929688 C 6.613281 17.046875 17.871094 5.792969 31.753906 5.792969 Z M 31.753906 5.792969 "/>
<path style=" stroke:none;fill-rule:nonzero;fill:rgb(0%,0%,0%);fill-opacity:0.196078;" d="M 31.753906 56.066406 C 17.828125 56.066406 6.613281 44.855469 6.613281 30.929688 C 6.613281 30.847656 6.617188 30.765625 6.617188 30.683594 C 6.746094 44.496094 17.910156 55.574219 31.753906 55.574219 C 45.597656 55.574219 56.757812 44.496094 56.890625 30.683594 C 56.890625 30.765625 56.890625 30.847656 56.890625 30.929688 C 56.890625 44.855469 45.679688 56.066406 31.753906 56.066406 Z M 31.753906 56.066406 "/>
<path style=" stroke:none;fill-rule:nonzero;fill:rgb(100%,100%,100%);fill-opacity:0.392157;" d="M 31.753906 5.792969 C 17.828125 5.792969 6.613281 17.003906 6.613281 30.929688 C 6.613281 31.011719 6.617188 31.09375 6.617188 31.175781 C 6.746094 17.363281 17.910156 6.285156 31.753906 6.285156 C 45.597656 6.285156 56.757812 17.363281 56.890625 31.175781 C 56.890625 31.09375 56.890625 31.011719 56.890625 30.929688 C 56.890625 17.003906 45.679688 5.792969 31.753906 5.792969 Z M 31.753906 5.792969 "/>
<path style=" stroke:none;fill-rule:nonzero;fill:rgb(12.941177%,12.941177%,12.941177%);fill-opacity:1;" d="M 31.753906 5.605469 C 17.726562 5.605469 6.425781 16.902344 6.425781 30.929688 C 6.425781 44.957031 17.726562 56.253906 31.753906 56.253906 C 45.78125 56.253906 57.078125 44.957031 57.078125 30.929688 C 57.078125 16.902344 45.78125 5.605469 31.753906 5.605469 Z M 31.753906 5.980469 C 45.578125 5.980469 56.703125 17.105469 56.703125 30.929688 C 56.703125 44.753906 45.578125 55.878906 31.753906 55.878906 C 17.925781 55.878906 6.800781 44.753906 6.800781 30.929688 C 6.800781 17.105469 17.925781 5.980469 31.753906 5.980469 Z M 31.753906 5.980469 "/>
<path style=" stroke:none;fill-rule:nonzero;fill:url(#linear2);" d="M 31.753906 48.128906 C 41.253906 48.128906 48.953125 40.429688 48.953125 30.929688 C 48.953125 21.429688 41.253906 13.730469 31.753906 13.730469 C 22.253906 13.730469 14.554688 21.429688 14.554688 30.929688 C 14.554688 40.429688 22.253906 48.128906 31.753906 48.128906 Z M 31.753906 48.128906 "/>
<path style=" stroke:none;fill-rule:nonzero;fill:rgb(0%,0%,0%);fill-opacity:0.235294;" d="M 31.753906 13.730469 C 22.222656 13.730469 14.554688 21.402344 14.554688 30.929688 C 14.554688 31.152344 14.558594 31.371094 14.566406 31.589844 C 14.910156 22.371094 22.445312 15.054688 31.753906 15.054688 C 41.058594 15.054688 48.59375 22.371094 48.941406 31.589844 C 48.949219 31.371094 48.953125 31.152344 48.953125 30.929688 C 48.953125 21.402344 41.28125 13.730469 31.753906 13.730469 Z M 31.753906 13.730469 "/>
<path style=" stroke:none;fill-rule:nonzero;fill:rgb(100%,100%,100%);fill-opacity:0.392157;" d="M 14.566406 31.589844 C 14.558594 31.8125 14.554688 32.03125 14.554688 32.253906 C 14.554688 41.78125 22.222656 49.453125 31.753906 49.453125 C 41.28125 49.453125 48.953125 41.78125 48.953125 32.253906 C 48.953125 32.03125 48.949219 31.8125 48.941406 31.589844 C 48.59375 40.8125 41.058594 48.128906 31.753906 48.128906 C 22.445312 48.128906 14.910156 40.8125 14.566406 31.589844 Z M 14.566406 31.589844 "/>
<path style="fill:none;stroke-width:3;stroke-linecap:round;stroke-linejoin:miter;stroke:rgb(12.941177%,12.941177%,12.941177%);stroke-opacity:1;stroke-miterlimit:4;" d="M 254.006994 -169.994485 C 329.999737 -169.994485 391.587605 -108.406616 391.587605 -32.413873 C 391.587605 43.57887 329.999737 105.166739 254.006994 105.166739 C 178.01425 105.166739 116.426382 43.57887 116.426382 -32.413873 C 116.426382 -108.406616 178.01425 -169.994485 254.006994 -169.994485 Z M 254.006994 -169.994485 " transform="matrix(0.125012,0,0,-0.125012,0,26.877566)"/>
<path style=" stroke:none;fill-rule:nonzero;fill:url(#linear3);" d="M 29.105469 20.34375 C 26.90625 20.34375 25.136719 22.117188 25.136719 24.316406 L 25.136719 26.960938 C 25.136719 28.34375 25.839844 29.558594 26.90625 30.269531 C 25.839844 30.976562 25.136719 32.191406 25.136719 33.574219 L 25.136719 37.546875 C 25.136719 39.742188 26.90625 41.515625 29.105469 41.515625 L 34.398438 41.515625 C 36.597656 41.515625 38.367188 39.742188 38.367188 37.546875 L 38.367188 33.574219 C 38.367188 32.191406 37.667969 30.976562 36.597656 30.269531 C 37.667969 29.558594 38.367188 28.34375 38.367188 26.960938 L 38.367188 24.316406 C 38.367188 22.117188 36.597656 20.34375 34.398438 20.34375 Z M 29.769531 22.992188 L 33.738281 22.992188 C 34.835938 22.992188 35.722656 23.875 35.722656 24.976562 L 35.722656 26.960938 C 35.722656 28.058594 34.835938 28.945312 33.738281 28.945312 L 29.769531 28.945312 C 28.667969 28.945312 27.785156 28.058594 27.785156 26.960938 L 27.785156 24.976562 C 27.785156 23.875 28.667969 22.992188 29.769531 22.992188 Z M 29.769531 31.589844 L 33.738281 31.589844 C 34.835938 31.589844 35.722656 32.476562 35.722656 33.574219 L 35.722656 36.882812 C 35.722656 37.984375 34.835938 38.867188 33.738281 38.867188 L 29.769531 38.867188 C 28.667969 38.867188 27.785156 37.984375 27.785156 36.882812 L 27.785156 33.574219 C 27.785156 32.476562 28.667969 31.589844 29.769531 31.589844 Z M 29.769531 31.589844 "/>
<path style=" stroke:none;fill-rule:nonzero;fill:rgb(100%,100%,100%);fill-opacity:0.313726;" d="M 29.105469 20.34375 C 26.90625 20.34375 25.136719 22.117188 25.136719 24.316406 L 25.136719 24.976562 C 25.136719 22.777344 26.90625 21.007812 29.105469 21.007812 L 34.398438 21.007812 C 36.597656 21.007812 38.367188 22.777344 38.367188 24.976562 L 38.367188 24.316406 C 38.367188 22.117188 36.597656 20.34375 34.398438 20.34375 Z M 27.785156 26.960938 L 27.785156 27.621094 C 27.785156 28.722656 28.667969 29.605469 29.769531 29.605469 L 33.738281 29.605469 C 34.835938 29.605469 35.722656 28.722656 35.722656 27.621094 L 35.722656 26.960938 C 35.722656 28.058594 34.835938 28.945312 33.738281 28.945312 L 29.769531 28.945312 C 28.667969 28.945312 27.785156 28.058594 27.785156 26.960938 Z M 26.476562 30.597656 C 25.65625 31.324219 25.136719 32.386719 25.136719 33.574219 L 25.136719 34.238281 C 25.136719 32.855469 25.839844 31.640625 26.90625 30.929688 C 26.757812 30.828125 26.613281 30.71875 26.476562 30.597656 Z M 37.027344 30.597656 C 36.894531 30.71875 36.75 30.828125 36.597656 30.929688 C 37.667969 31.640625 38.367188 32.855469 38.367188 34.238281 L 38.367188 33.574219 C 38.367188 32.386719 37.851562 31.324219 37.027344 30.597656 Z M 27.785156 36.882812 L 27.785156 37.546875 C 27.785156 38.644531 28.667969 39.53125 29.769531 39.53125 L 33.738281 39.53125 C 34.835938 39.53125 35.722656 38.644531 35.722656 37.546875 L 35.722656 36.882812 C 35.722656 37.984375 34.835938 38.867188 33.738281 38.867188 L 29.769531 38.867188 C 28.667969 38.867188 27.785156 37.984375 27.785156 36.882812 Z M 27.785156 36.882812 "/>
<path style=" stroke:none;fill-rule:nonzero;fill:rgb(0%,0%,0%);fill-opacity:0.235294;" d="M 29.769531 22.992188 C 28.667969 22.992188 27.785156 23.875 27.785156 24.976562 L 27.785156 25.96875 C 27.785156 24.871094 28.667969 23.984375 29.769531 23.984375 L 33.738281 23.984375 C 34.835938 23.984375 35.722656 24.871094 35.722656 25.96875 L 35.722656 24.976562 C 35.722656 23.875 34.835938 22.992188 33.738281 22.992188 Z M 25.136719 26.960938 L 25.136719 27.953125 C 25.136719 29.054688 25.582031 30.046875 26.300781 30.765625 C 26.484375 30.582031 26.6875 30.414062 26.90625 30.269531 C 25.839844 29.558594 25.136719 28.34375 25.136719 26.960938 Z M 38.367188 26.960938 C 38.367188 28.34375 37.667969 29.558594 36.597656 30.269531 C 36.816406 30.414062 37.019531 30.582031 37.203125 30.765625 C 37.925781 30.046875 38.367188 29.054688 38.367188 27.953125 Z M 29.769531 31.589844 C 28.667969 31.589844 27.785156 32.476562 27.785156 33.574219 L 27.785156 34.570312 C 27.785156 33.46875 28.667969 32.582031 29.769531 32.582031 L 33.738281 32.582031 C 34.835938 32.582031 35.722656 33.46875 35.722656 34.570312 L 35.722656 33.574219 C 35.722656 32.476562 34.835938 31.589844 33.738281 31.589844 Z M 25.136719 37.546875 L 25.136719 38.539062 C 25.136719 40.738281 26.90625 42.507812 29.105469 42.507812 L 34.398438 42.507812 C 36.597656 42.507812 38.367188 40.738281 38.367188 38.539062 L 38.367188 37.546875 C 38.367188 39.742188 36.597656 41.515625 34.398438 41.515625 L 29.105469 41.515625 C 26.90625 41.515625 25.136719 39.742188 25.136719 37.546875 Z M 25.136719 37.546875 "/>
<path style="fill:none;stroke-width:11.338583;stroke-linecap:round;stroke-linejoin:round;stroke:rgb(12.941177%,12.941177%,12.941177%);stroke-opacity:1;stroke-miterlimit:4;" d="M 879.955385 615.059407 C 813.465668 615.059407 759.966837 668.676337 759.966837 735.166054 L 759.966837 815.119053 C 759.966837 856.926087 781.22465 893.654865 813.465668 915.148876 C 781.22465 936.524789 759.966837 973.253567 759.966837 1015.0606 L 759.966837 1135.167247 C 759.966837 1201.538865 813.465668 1255.155795 879.955385 1255.155795 L 1039.979482 1255.155795 C 1106.469199 1255.155795 1159.96803 1201.538865 1159.96803 1135.167247 L 1159.96803 1015.0606 C 1159.96803 973.253567 1138.828315 936.524789 1106.469199 915.148876 C 1138.828315 893.654865 1159.96803 856.926087 1159.96803 815.119053 L 1159.96803 735.166054 C 1159.96803 668.676337 1106.469199 615.059407 1039.979482 615.059407 Z M 900.032209 695.130505 L 1020.020757 695.130505 C 1053.206566 695.130505 1080.015031 721.820871 1080.015031 755.124779 L 1080.015031 815.119053 C 1080.015031 848.304862 1053.206566 875.113327 1020.020757 875.113327 L 900.032209 875.113327 C 866.728301 875.113327 840.037935 848.304862 840.037935 815.119053 L 840.037935 755.124779 C 840.037935 721.820871 866.728301 695.130505 900.032209 695.130505 Z M 900.032209 955.066326 L 1020.020757 955.066326 C 1053.206566 955.066326 1080.015031 981.874791 1080.015031 1015.0606 L 1080.015031 1115.090423 C 1080.015031 1148.394331 1053.206566 1175.084697 1020.020757 1175.084697 L 900.032209 1175.084697 C 866.728301 1175.084697 840.037935 1148.394331 840.037935 1115.090423 L 840.037935 1015.0606 C 840.037935 981.874791 866.728301 955.066326 900.032209 955.066326 Z M 900.032209 955.066326 " transform="matrix(0.0330761,0,0,0.0330761,0,0)"/>
</g>
</svg>
